X: 17516
T: Hills Of Knocknashee
R: waltz
M: 3/4
K: Dmajor
a2|f3ef2|d4f2|e2d3B|d4B|A4B2|d4c2|d6|z4A|
d4e2|f4a2|b4b2|a3fe2|d4f2|e2d3A|B3|z4A|
d4e2|f4a2|b4g2|a3fe2|d4f2|e2d3A|B3|z2a2g2|
f3ef2|d4f2|e2d3B|d4B|A4B2|d4c2|d6|z4:|

